dist/images/clients/itv.svg

<svg fill="none" height="60" viewBox="0 0 118 60" width="118" xmlns="http://www.w3.org/2000/svg" xmlns:xlink="http://www.w3.org/1999/xlink"><clipPath id="a"><path d="m0 0h118v60h-118z"/></clipPath><g clip-path="url(#a)"><path d="m0 7.88556c0-4.3451 3.0094-7.88556 7.86667-7.88556 5.12123 0 7.84023 3.72821 7.84023 8.07331 0 4.80109-3.4581 7.72459-7.81383 7.72459-4.72528 0-7.89307-3.2722-7.89307-7.91234z" fill="#18adb7"/><path d="m.0527954 22.3692c0-.7241.3959736-1.2606 1.2143146-1.2606h13.25189c.7128 0 1.1615.5633 1.1615 1.2606v20.6527c0 3.5136 1.9799 7.6174 8.0779 7.6174 5.9396 0 9.0018-3.7551 9.0018-11.3992v-1.6093l6.3092 12.177.8183 4.1305s-6.1772 6.0617-17.37 6.0617c-5.57 0-22.4385064-.9388-22.4385064-19.6871v-17.9437z" fill="#18adb7"/><path d="m80.6465 37.1748-8.8962-4.506s1.6895 2.8162 1.6895 6.3835c0 7.0004-5.5172 11.5065-13.3575 11.5065-8.5794 0-11.9056-5.3375-11.9056-12.3111v-2.8968c0-.0804 0-.1341 0-.2146v-4.962s2.1647.8315 4.2766.8315h8.0778c.792 0 1.0823-.5364 1.0823-1.2338v-7.3223c0-.8315-.3431-1.3411-1.2143-1.3411h-12.196v-12.25746c0-2.03844-.7655-4.77425-7.629-4.77425-6.3092 0-7.8139 2.06526-7.8139 4.42557v29.58424c0 10.3264 7.1011 15.8516 7.1011 15.8516s5.9396 6.0081 18.9539 6.0081c16.6837 0 22.5969-11.8016 22.5969-11.8016z" fill="#1d2232"/><path d="m117.023 22.7984-6.758-2.1189c-1.082-.2951-1.821-.0537-2.085.8851 0 0-3.986 13.7863-10.2426 25.3464-9.8466-18.3996-13.7007-24.1394-13.7007-24.1394-.9503-1.6093-2.2966-2.414-3.8277-2.414-2.2967 0-5.1213 1.1533-5.9132 1.663-3.643 2.3066-4.6989 3.8355-4.7253 5.9275 0 1.4216.4751 2.1458 1.1087 3.3527l10.5065 16.844 5.0685 7.7783c1.6102 2.4408 3.2205 4.0233 7.8138 4.0233 5.702 0 7.444-2.1726 9.134-4.7207 0 0 8.79-13.679 14.413-30.2816.449-1.502.027-1.8507-.792-2.1457z" fill="#6e7d81"/></g></svg>

<svg width="118" height="60" viewBox="0 0 118 60" fill="none" xmlns="http://www.w3.org/2000/svg">
<g clip-path="url(#clip0_8_6)">
<path d="M0 7.88556C0 3.54046 3.0094 0 7.86667 0C12.9879 0 15.7069 3.72821 15.7069 8.07331C15.7069 12.8744 12.2488 15.7979 7.89307 15.7979C3.16779 15.7979 0 12.5257 0 7.88556Z" fill="#18ADB7"/>
<path d="M0.0527954 22.3692C0.0527954 21.6451 0.448769 21.1086 1.26711 21.1086H14.519C15.2318 21.1086 15.6805 21.6719 15.6805 22.3692V43.0219C15.6805 46.5355 17.6604 50.6393 23.7584 50.6393C29.698 50.6393 32.7602 46.8842 32.7602 39.2401V37.6308L39.0694 49.8078L39.8877 53.9383C39.8877 53.9383 33.7105 60 22.5177 60C16.9477 60 0.0791936 59.0612 0.0791936 40.3129V22.3692H0.0527954Z" fill="#18ADB7"/>
<path d="M80.6465 37.1748L71.7503 32.6688C71.7503 32.6688 73.4398 35.485 73.4398 39.0523C73.4398 46.0527 67.9226 50.5588 60.0823 50.5588C51.5029 50.5588 48.1767 45.2213 48.1767 38.2477V35.3509C48.1767 35.2705 48.1767 35.2168 48.1767 35.1363V30.1743C48.1767 30.1743 50.3414 31.0058 52.4533 31.0058H60.5311C61.3231 31.0058 61.6134 30.4694 61.6134 29.772V22.4497C61.6134 21.6182 61.2703 21.1086 60.3991 21.1086H48.2031V8.85114C48.2031 6.8127 47.4376 4.07689 40.5741 4.07689C34.2649 4.07689 32.7602 6.14215 32.7602 8.50246V38.0867C32.7602 48.4131 39.8613 53.9383 39.8613 53.9383C39.8613 53.9383 45.8009 59.9464 58.8152 59.9464C75.4989 59.9464 81.4121 48.1448 81.4121 48.1448L80.6465 37.1748Z" fill="#1D2232"/>
<path d="M117.023 22.7984L110.265 20.6795C109.183 20.3844 108.444 20.6258 108.18 21.5646C108.18 21.5646 104.194 35.3509 97.9374 46.911C88.0908 28.5114 84.2367 22.7716 84.2367 22.7716C83.2864 21.1623 81.9401 20.3576 80.409 20.3576C78.1123 20.3576 75.2877 21.5109 74.4958 22.0206C70.8528 24.3272 69.7969 25.8561 69.7705 27.9481C69.7705 29.3697 70.2456 30.0939 70.8792 31.3008L81.3857 48.1448L86.4542 55.9231C88.0644 58.3639 89.6747 59.9464 94.268 59.9464C99.97 59.9464 101.712 57.7738 103.402 55.2257C103.402 55.2257 112.192 41.5467 117.815 24.9441C118.264 23.4421 117.842 23.0934 117.023 22.7984Z" fill="#6E7D81"/>
</g>
<defs>
<clipPath id="clip0_8_6">
<rect width="118" height="60" fill="white"/>
</clipPath>
</defs>
</svg>
